X:46
T:Ma belle, si tu voulais
R:Chanson
O:France
B:Le livre des Chansons (Henri Davenson) n°46
Z:<anamnese@caramail.com> -- http://anamnese.fr.st
M:3/8
L:1/8
Q:1/4=100
K:Bb
F | F2 G | G2 F | F2 D | D2 E | E2 D | D2 C | C2 D | D2 C |!
 C B, B, | B, z C | C2 D | D2 C | C2 B,-|B,2 z ||
W:Ma belle, si tu voulais, (2x)
W:Nous dormirions ensemble, (2x) lon là
W:
W:Dans un grand lit carré, couvert de taies blanches ;
W:Aux quatre coins du lit, un bouquet de pervenches.
W:Dans le mitan du lit, la rivière profonde ;
W:Tous les chevaux du roi y viennent boire ensemble.
W:Et là, nous dormirions jusqu'à la fin du monde.

